X:3398
T:La grande ourse (I. Karvaix)
O:england
C:Les Brayauds: Couleurs
M:3/4
L:1/8
K:C
d3c AB|c4B2|AB AF EF|BF EF ED|\
d3c AB|c4B2|AB cA Bc|d6:|
|:DE FD EF|A6|DE FD EF|B6|\
DE FD EF|cB  Ac BA|BA GB AG|A6:|


